core/assets/icons/gadget.svg

<svg width="24" height="24" viewBox="0 0 24 24" xmlns="http://www.w3.org/2000/svg"><g id="gadget"><g id="Group"><path id="Vector" d="M15.4124 10.7104L12.5472 11.8847L10.9326 8.62891L9.5 9.21606L11.7605 13.7742L16.0582 12.0128L15.4124 10.7104Z"/><path id="Union" fill-rule="evenodd" clip-rule="evenodd" d="M17.1906 5.39813C17.0888 5.30552 16.9827 5.21758 16.8729 5.13447C16.4104 4.78456 16.0384 4.3184 15.7526 3.81382C15.1392 2.73084 13.9764 2 12.6429 2H11.9286C10.5951 2 9.43233 2.73082 8.81891 3.81377C8.5331 4.31835 8.16107 4.78452 7.69862 5.13442C7.58876 5.21755 7.48268 5.3055 7.38078 5.39814C6.49668 6.20186 6 7.29195 6 8.42859V15.5715C6 16.7081 6.49668 17.7982 7.38078 18.6019C7.48266 18.6945 7.58872 18.7825 7.69857 18.8656C8.161 19.2155 8.53301 19.6816 8.81881 20.1862C9.43223 21.2692 10.595 22 11.9285 22H12.6428C13.9763 22 15.139 21.2692 15.7525 20.1863C16.0383 19.6817 16.4103 19.2155 16.8728 18.8657C16.9826 18.7825 17.0887 18.6946 17.1906 18.6019C18.0747 17.7982 18.5714 16.7081 18.5714 15.5715L18.5714 8.42859C18.5714 7.29195 18.0747 6.20186 17.1906 5.39813ZM13.8697 18.4286C14.6715 18.4257 15.442 18.1442 16.0232 17.6416C16.6075 17.1364 16.9558 16.4464 16.9961 15.7143L17 15.5715L17 8.42859C17 7.69556 16.6901 6.99057 16.1344 6.45944C15.5786 5.92831 14.8196 5.61167 14.0143 5.57502L13.8571 5.57145H10.7143C9.90795 5.57145 9.13246 5.85319 8.54822 6.3584C7.96397 6.8636 7.61567 7.55362 7.57536 8.28574L7.57143 8.42859L7.57143 15.5715C7.57143 16.3045 7.88134 17.0095 8.43707 17.5406C8.9928 18.0717 9.75182 18.3884 10.5571 18.425L10.7133 18.4286H13.8697Z"/></g></g></svg>

<svg xmlns="http://www.w3.org/2000/svg" width="24" height="24" fill="none"><g fill="#191C22"><path d="m15.412 10.71-2.865 1.175-1.614-3.256-1.433.587 2.26 4.558 4.298-1.761-.646-1.303Z"/><path fill-rule="evenodd" d="M17.19 5.398a4.577 4.577 0 0 0-.317-.264c-.463-.35-.835-.816-1.12-1.32A3.57 3.57 0 0 0 12.643 2h-.714a3.57 3.57 0 0 0-3.11 1.814c-.286.504-.658.97-1.12 1.32-.11.084-.216.171-.318.264C6.497 6.202 6 7.292 6 8.428v7.143c0 1.137.497 2.227 1.38 3.03.103.094.209.181.319.265.462.35.834.816 1.12 1.32A3.57 3.57 0 0 0 11.929 22h.714a3.57 3.57 0 0 0 3.11-1.814c.285-.504.657-.97 1.12-1.32.11-.084.216-.171.318-.264.884-.804 1.38-1.894 1.38-3.03V8.428c0-1.137-.496-2.227-1.38-3.03Zm-3.32 13.03a3.317 3.317 0 0 0 2.153-.786c.585-.506.933-1.196.973-1.928l.004-.143V8.43c0-.733-.31-1.438-.866-1.97a3.287 3.287 0 0 0-2.12-.884l-.157-.004h-3.143c-.806 0-1.582.282-2.166.787-.584.506-.932 1.196-.973 1.928l-.004.143v7.143c0 .733.31 1.438.866 1.969a3.287 3.287 0 0 0 2.12.884l.156.004h3.157Z" clip-rule="evenodd"/></g></svg>
